icons/female_reproductive_system.svg

<svg width="48" height="48" viewBox="0 0 48 48" fill="none" xmlns="http://www.w3.org/2000/svg">
<path fill-rule="evenodd" clip-rule="evenodd" d="M6.25587 15.1285C5.76466 14.341 6.01569 13.4525 6.81625 12.724C7.20603 12.3693 7.65852 12.132 8.04887 12.0412C8.44855 11.9482 8.65047 12.0303 8.73192 12.0956C10.5383 13.5436 11.7076 13.9187 12.7265 14.0078C13.0164 14.0331 13.2354 14.0401 13.4139 14.0458C13.8586 14.0599 14.0515 14.0661 14.4605 14.3283L15.5401 12.6447C14.6269 12.0592 13.807 12.0415 13.2427 12.0293C13.115 12.0265 13.0004 12.0241 12.9007 12.0154C12.3679 11.9688 11.5622 11.8011 9.98283 10.5351C9.25847 9.95444 8.35213 9.91718 7.5956 10.0932C6.82974 10.2714 6.07806 10.6916 5.47019 11.2448C4.27545 12.3319 3.3573 14.2606 4.55893 16.187C5.17971 17.1821 5.86889 18.0365 6.50435 18.7285C6.59552 18.5574 6.71267 18.4007 6.85662 18.2619C7.2197 17.912 7.70794 17.7201 8.25956 17.6755C7.61731 17.0094 6.89203 16.1483 6.25587 15.1285Z" fill="black"/>
<path fill-rule="evenodd" clip-rule="evenodd" d="M12.447 23.0879C12.3517 22.6573 12.0439 22.0735 11.455 21.5307C10.8661 20.9878 10.24 20.7108 9.78109 20.6306C9.52663 20.5861 9.39247 20.6068 9.33458 20.6242C9.31744 20.6791 9.2985 20.806 9.35136 21.0448C9.4467 21.4754 9.75448 22.0592 10.3434 22.602C10.9323 23.1448 11.5584 23.4218 12.0173 23.502C12.2717 23.5465 12.4059 23.5258 12.4638 23.5085C12.4809 23.4535 12.4999 23.3267 12.447 23.0879ZM12.4485 23.5426C12.4482 23.5424 12.4497 23.5395 12.4538 23.5342C12.4508 23.5401 12.4488 23.5428 12.4485 23.5426ZM12.4908 23.4985C12.4964 23.4945 12.4995 23.493 12.4996 23.4933C12.4998 23.4936 12.4971 23.4956 12.4908 23.4985ZM9.34988 20.5901C9.35016 20.5902 9.34869 20.5932 9.34458 20.5985C9.34754 20.5926 9.34959 20.5899 9.34988 20.5901ZM9.30752 20.6342C9.30199 20.6382 9.29889 20.6396 9.29872 20.6394C9.29854 20.6391 9.30131 20.6371 9.30752 20.6342ZM13.9417 24.8708C15.044 23.8084 14.5753 21.6916 12.895 20.1427C11.2146 18.5939 8.95887 18.1995 7.85662 19.2619C6.75436 20.3243 7.22301 22.4411 8.90337 23.9899C10.5837 25.5388 12.8395 25.9331 13.9417 24.8708Z" fill="black"/>
<path fill-rule="evenodd" clip-rule="evenodd" d="M41.7441 15.1285C42.2353 14.341 41.9843 13.4525 41.1837 12.724C40.794 12.3693 40.3415 12.132 39.9511 12.0412C39.5514 11.9482 39.3495 12.0303 39.2681 12.0956C37.4617 13.5436 36.2924 13.9187 35.2735 14.0078C34.9836 14.0331 34.7646 14.0401 34.5861 14.0458C34.1414 14.0599 33.9485 14.0661 33.5395 14.3283L32.4599 12.6447C33.3731 12.0592 34.193 12.0415 34.7573 12.0293C34.885 12.0265 34.9996 12.0241 35.0993 12.0154C35.6321 11.9688 36.4378 11.8011 38.0172 10.5351C38.7415 9.95444 39.6479 9.91718 40.4044 10.0932C41.1703 10.2714 41.9219 10.6916 42.5298 11.2448C43.7245 12.3319 44.6427 14.2606 43.4411 16.187C42.8072 17.2031 42.1021 18.0724 41.4556 18.7719C41.3615 18.5839 41.2369 18.4123 41.0809 18.2619C40.7305 17.9242 40.2635 17.7337 39.7354 17.6807C40.3789 17.0139 41.1063 16.151 41.7441 15.1285Z" fill="black"/>
<path fill-rule="evenodd" clip-rule="evenodd" d="M35.4905 23.0879C35.5858 22.6573 35.8936 22.0735 36.4825 21.5307C37.0714 20.9878 37.6975 20.7108 38.1564 20.6306C38.4109 20.5861 38.545 20.6068 38.6029 20.6242C38.6201 20.6791 38.639 20.806 38.5861 21.0448C38.4908 21.4754 38.183 22.0592 37.5941 22.602C37.0052 23.1448 36.3791 23.4218 35.9202 23.502C35.6658 23.5465 35.5316 23.5258 35.4737 23.5085C35.4566 23.4535 35.4376 23.3267 35.4905 23.0879ZM35.489 23.5426C35.4893 23.5424 35.4878 23.5395 35.4837 23.5342C35.4867 23.5401 35.4887 23.5428 35.489 23.5426ZM35.4467 23.4985C35.4411 23.4945 35.438 23.493 35.4379 23.4933C35.4377 23.4936 35.4404 23.4956 35.4467 23.4985ZM38.5876 20.5901C38.5873 20.5902 38.5888 20.5932 38.5929 20.5985C38.59 20.5926 38.5879 20.5899 38.5876 20.5901ZM38.63 20.6342C38.6355 20.6382 38.6386 20.6396 38.6388 20.6394C38.639 20.6391 38.6362 20.6371 38.63 20.6342ZM33.9958 24.8708C32.8935 23.8084 33.3622 21.6916 35.0425 20.1427C36.7229 18.5939 38.9786 18.1995 40.0809 19.2619C41.1831 20.3243 40.7145 22.4411 39.0341 23.9899C37.3538 25.5388 35.098 25.9331 33.9958 24.8708Z" fill="black"/>
<path fill-rule="evenodd" clip-rule="evenodd" d="M18.6615 19.2121C19.0946 20.1648 19.6455 20.9427 20.0524 21.3516C20.7975 22.1005 21.1419 23.3039 21.3451 24.4744C21.5576 25.6984 21.6533 27.1488 21.7307 28.602C21.746 28.8887 21.7605 29.1757 21.7751 29.4622C21.8354 30.651 21.8952 31.8308 22.003 32.9412C22.0987 33.9264 22.2286 34.8112 22.4144 35.5565C22.5438 35.4444 22.6841 35.325 22.8046 35.2323C22.9359 35.1312 23.0962 35.018 23.2732 34.9271C23.4413 34.8409 23.6997 34.7349 24.0101 34.7349C24.3268 34.7349 24.5873 34.8447 24.761 34.9399C24.9399 35.038 25.0959 35.1593 25.2196 35.2654C25.2597 35.2997 25.3008 35.3366 25.3422 35.3748C25.4633 34.7055 25.5308 33.9374 25.5657 33.0886C25.6023 32.1966 25.6021 31.2743 25.6018 30.3261C25.6017 29.8539 25.6016 29.3753 25.606 28.8909C25.619 27.4684 25.672 26.0202 25.9061 24.7409C26.1377 23.4749 26.5698 22.2355 27.4493 21.3516C28.0464 20.7516 28.7127 19.87 29.2168 18.8922C29.7261 17.9044 30.0252 16.9055 29.9983 16.0509C29.9732 15.2501 29.6681 14.5574 28.8742 14.0222C28.0237 13.4488 26.5251 13 24.0101 13C21.5094 13 20.0285 13.4845 19.183 14.0954C18.3806 14.6752 18.0506 15.4404 18.0054 16.316C17.9581 17.2306 18.2283 18.2592 18.6615 19.2121ZM18.0117 12.4743C19.3354 11.5179 21.2977 11 24.0101 11C26.7081 11 28.6692 11.472 29.9922 12.3639C31.3718 13.294 31.9541 14.6111 31.9973 15.9881C32.0389 17.3115 31.5874 18.6587 30.9944 19.8088C30.3962 20.969 29.6085 22.0172 28.867 22.7623C28.4078 23.2238 28.0767 23.9896 27.8734 25.1008C27.6726 26.1986 27.6188 27.4992 27.6059 28.9091C27.6019 29.3516 27.6019 29.8083 27.602 30.2699C27.6022 31.2429 27.6023 32.2383 27.564 33.1707C27.5074 34.5489 27.3648 35.9211 26.9703 37.0698C26.8958 37.2865 26.7402 37.6131 26.3948 37.824C26.0071 38.0609 25.6099 38.0175 25.3506 37.93C25.1151 37.8506 24.9272 37.717 24.8077 37.6229C24.6781 37.5208 24.556 37.4058 24.4541 37.3061C24.3716 37.2253 24.3013 37.1545 24.2379 37.0904C24.1457 36.9975 24.0679 36.919 23.9878 36.8458C23.8839 36.9278 23.7912 37.0092 23.6826 37.1046C23.5988 37.1781 23.5057 37.2599 23.3907 37.3566C23.1943 37.5219 22.8302 37.8249 22.4182 37.9435C22.1753 38.0134 21.8085 38.0511 21.437 37.8545C21.0752 37.6631 20.8911 37.3451 20.7977 37.0964C20.3721 35.9629 20.151 34.562 20.0124 33.1345C19.8997 31.9734 19.8369 30.7349 19.7765 29.5428C19.7623 29.2615 19.7482 28.9828 19.7335 28.7084C19.6558 27.2476 19.5641 25.9083 19.3746 24.8165C19.1757 23.6711 18.9034 23.0324 18.6347 22.7623C18.0278 22.1525 17.3518 21.1638 16.8408 20.0398C16.3298 18.9159 15.9385 17.5577 16.008 16.2127C16.0796 14.8288 16.6448 13.4618 18.0117 12.4743ZM23.8006 36.6943C23.7974 36.6927 23.7969 36.6922 23.7994 36.6936C23.7997 36.6938 23.8002 36.694 23.8006 36.6943Z" fill="black"/>
</svg>

<svg
  xmlns="http://www.w3.org/2000/svg"
  width="24"
  height="24"
  viewBox="0 0 24 24"
  fill="none"
  stroke="currentColor"
  stroke-width="2"
  stroke-linecap="round"
  stroke-linejoin="round"
>
  <path
    fill-rule="evenodd"
    d="M6.256 15.129c-.491-.788-.24-1.676.56-2.405.39-.355.843-.592 1.233-.683.4-.093.601-.01.683.055 1.806 1.448 2.976 1.823 3.995 1.912.29.025.508.032.687.038.445.014.638.02 1.047.282l1.08-1.683c-.914-.586-1.734-.604-2.298-.616q-.193-.002-.342-.014c-.533-.046-1.339-.214-2.918-1.48-.725-.58-1.63-.618-2.387-.442-.766.178-1.518.599-2.126 1.152-1.195 1.087-2.113 3.016-.911 4.942.62.995 1.31 1.85 1.945 2.541q.137-.256.353-.466c.363-.35.85-.542 1.403-.587a15.6 15.6 0 0 1-2.004-2.546"
    clip-rule="evenodd"
  />
  <path
    fill-rule="evenodd"
    d="M12.447 23.088c-.095-.43-.403-1.015-.992-1.557-.589-.543-1.215-.82-1.674-.9-.254-.045-.389-.024-.446-.007-.018.055-.037.182.016.42.096.431.403 1.015.992 1.558.59.543 1.215.82 1.674.9.255.045.389.024.447.007.017-.056.036-.182-.017-.421m.002.455q-.001 0 .005-.009zm.042-.044q.007-.007.009-.006 0 0-.01.006M9.35 20.59l-.005.009zm-.042.044-.01.005zm4.634 4.237c1.102-1.063.633-3.18-1.047-4.728-1.68-1.55-3.936-1.944-5.038-.881s-.634 3.18 1.046 4.728c1.68 1.549 3.936 1.943 5.039.88"
    clip-rule="evenodd"
  />
  <path
    fill-rule="evenodd"
    d="M41.744 15.129c.491-.788.24-1.676-.56-2.405-.39-.355-.842-.592-1.233-.683-.4-.093-.602-.01-.683.055-1.806 1.448-2.976 1.823-3.995 1.912-.29.025-.508.032-.687.038-.445.014-.637.02-1.047.282l-1.08-1.683c.914-.586 1.734-.604 2.298-.616q.193-.002.342-.014c.533-.046 1.339-.214 2.918-1.48.724-.58 1.63-.618 2.387-.442.766.178 1.518.599 2.126 1.152 1.194 1.087 2.113 3.016.911 4.942a17.4 17.4 0 0 1-1.985 2.585 1.9 1.9 0 0 0-.375-.51c-.35-.338-.818-.528-1.346-.581.644-.667 1.371-1.53 2.01-2.552"
    clip-rule="evenodd"
  />
  <path
    fill-rule="evenodd"
    d="M35.49 23.088c.096-.43.404-1.015.992-1.557.59-.543 1.215-.82 1.674-.9.255-.045.389-.024.447-.007.017.055.036.182-.017.42-.095.431-.403 1.015-.992 1.558s-1.215.82-1.674.9c-.254.045-.388.024-.446.007-.017-.056-.036-.182.017-.421m-.001.455-.005-.009zm-.042-.044q-.009-.007-.01-.006 0 0 .01.006m3.14-2.909.006.009zm.043.044.009.005zm-4.634 4.237c-1.102-1.063-.634-3.18 1.046-4.728 1.68-1.55 3.937-1.944 5.039-.881s.633 3.18-1.047 4.728c-1.68 1.549-3.936 1.943-5.038.88"
    clip-rule="evenodd"
  />
  <path
    fill-rule="evenodd"
    d="M18.662 19.212c.433.953.983 1.73 1.39 2.14.745.749 1.09 1.952 1.293 3.122.213 1.224.308 2.675.386 4.128l.044.86c.06 1.189.12 2.369.228 3.48.096.984.226 1.87.411 2.614.13-.112.27-.231.39-.324.132-.1.292-.214.47-.305.167-.086.426-.192.736-.192.317 0 .577.11.751.205.179.098.335.22.459.325l.122.11c.121-.67.189-1.438.224-2.286.036-.892.036-1.815.036-2.763q-.001-.708.004-1.435c.013-1.423.066-2.87.3-4.15.232-1.266.664-2.506 1.543-3.39.597-.6 1.264-1.481 1.768-2.459.51-.988.808-1.986.781-2.841-.025-.8-.33-1.494-1.124-2.029C28.024 13.45 26.525 13 24.01 13c-2.5 0-3.982.485-4.827 1.095-.802.58-1.132 1.345-1.178 2.221-.047.915.223 1.943.657 2.896m-.65-6.738C19.335 11.518 21.298 11 24.01 11c2.698 0 4.66.472 5.982 1.364 1.38.93 1.962 2.247 2.005 3.624.042 1.323-.41 2.67-1.003 3.82a12.3 12.3 0 0 1-2.127 2.954c-.46.462-.79 1.228-.994 2.339-.2 1.098-.254 2.398-.267 3.808-.004.443-.004.9-.004 1.36 0 .974 0 1.97-.038 2.902-.057 1.378-.2 2.75-.594 3.899-.074.216-.23.543-.575.754a1.23 1.23 0 0 1-1.044.106 1.9 1.9 0 0 1-.543-.307 5 5 0 0 1-.354-.317l-.216-.216c-.092-.093-.17-.171-.25-.244a7 7 0 0 0-.305.259c-.084.073-.177.155-.292.252-.197.165-.56.468-.973.587-.243.07-.61.107-.981-.09a1.4 1.4 0 0 1-.64-.758c-.425-1.133-.646-2.534-.785-3.961-.112-1.162-.175-2.4-.236-3.592l-.043-.835c-.077-1.46-.169-2.8-.358-3.891-.2-1.146-.472-1.785-.74-2.055-.607-.61-1.283-1.598-1.794-2.722s-.903-2.482-.833-3.827c.072-1.384.637-2.751 2.004-3.739m5.789 24.22h-.002z"
    clip-rule="evenodd"
  />
</svg>
